svgs/arrows/expand-03.svg

<svg width="24" height="24" viewBox="0 0 24 24" fill="none" xmlns="http://www.w3.org/2000/svg">
<path d="M21 14V16.2C21 17.8802 21 18.7202 20.673 19.362C20.3854 19.9265 19.9265 20.3854 19.362 20.673C18.7202 21 17.8802 21 16.2 21H14M10 3H7.8C6.11984 3 5.27976 3 4.63803 3.32698C4.07354 3.6146 3.6146 4.07354 3.32698 4.63803C3 5.27976 3 6.11984 3 7.8V10M15 9L21 3M21 3H15M21 3V9M9 15L3 21M3 21H9M3 21L3 15" stroke="#1C1D20" stroke-width="1.5" stroke-linecap="round" stroke-linejoin="round"/>
</svg>

<svg fill="none" xmlns="http://www.w3.org/2000/svg" viewBox="0 0 24 24"><path d="M21 14v2.2c0 1.68 0 2.52-.327 3.162a3 3 0 0 1-1.311 1.311C18.72 21 17.88 21 16.2 21H14M10 3H7.8c-1.68 0-2.52 0-3.162.327a3 3 0 0 0-1.311 1.311C3 5.28 3 6.12 3 7.8V10m12-1 6-6m0 0h-6m6 0v6M9 15l-6 6m0 0h6m-6 0v-6" stroke="#1C1D20" stroke-width="1.5" stroke-linecap="round" stroke-linejoin="round"/></svg>
